X: 1
T: Sleep Soond in da Moarnin'
T: Sleep Soond Ida Moarnin
O: trad Shetland
B: Tom Anderson "Haand Me Doon"
B: Boston Scottish Fiddle Club Session Tunes p.15
B: BSFC IV-27
Z: 2019 John Chambers <jc:trillian.mit.edu>
S: Handwritten MS from Barbara McOwen
M: C|
L: 1/8
K: Ador
B \
| "Am"A(aag) a2(ef) | "G"gedB GABG \
| "Am"Aaag a2ef | "G"gedB "Am"A3 :|
(B \
| "Am"cA)e(A cA)eA | "G"BcdB [G3B3]B \
| "Am"cAeA cAeA | "G"BAGB "Am"A3 ||
B \
| "Am"cAeA cAeA | "G"BcdB G3B \
| "Am"ABcd efga | "G"gedB "Am"A3 |]
